X:513
T: VIEL WOLLUST MIT SICH BRINGET
N: E0491
O: Europa, Mitteleuropa, Deutschland
R: Liebes - Lied
M: 6/4
L: 1/8
K: F
c2 | c3BA2B3AG2 | A4F2A3G
F2 | G4F2GFEDE2 | F6-F4
c2 | c3BA2B3AG2 | A4F2A3G
F2 | G4F2GFEDE2 | F6-F4
GA | B4B2B4c2 | d4c2d3e
f2 | e3dc2dc=BAB2 | c6-c4
GA | B4B2B4c2 | d4c2d3e
f2 | e3dc2dc=BAB2 | c6-c4

